svg/picture.svg

<svg xmlns="http://www.w3.org/2000/svg" viewBox="0 0 32 32" enable-background="new 0 0 32 32"><path d="M 2 5 L 2 6 L 2 26 L 2 27 L 3 27 L 29 27 L 30 27 L 30 26 L 30 6 L 30 5 L 29 5 L 3 5 L 2 5 z M 4 7 L 28 7 L 28 20.90625 L 22.71875 15.59375 L 22 14.875 L 21.28125 15.59375 L 17.46875 19.40625 L 11.71875 13.59375 L 11 12.875 L 10.28125 13.59375 L 4 19.875 L 4 7 z M 24 9 C 22.895431 9 22 9.8954305 22 11 C 22 12.104569 22.895431 13 24 13 C 25.104569 13 26 12.104569 26 11 C 26 9.8954305 25.104569 9 24 9 z M 11 15.71875 L 20.1875 25 L 4 25 L 4 22.71875 L 11 15.71875 z M 22 17.71875 L 28 23.71875 L 28 25 L 23.03125 25 L 18.875 20.8125 L 22 17.71875 z" color="#000" overflow="visible" enable-background="accumulate"/></svg>

<svg xmlns="http://www.w3.org/2000/svg" viewBox="0 0 32 32"><path d="M2 5v22h28V5H2zm2 2h24v13.906l-5.28-5.312-.72-.72-.72.72-3.81 3.812-5.75-5.812-.72-.72-.72.72L4 19.874V7zm20 2c-1.105 0-2 .895-2 2s.895 2 2 2 2-.895 2-2-.895-2-2-2zm-13 6.72L20.188 25H4v-2.28l7-7zm11 2l6 6V25h-4.97l-4.155-4.188L22 17.72z"/></svg>
